images/social_media/twitter_2.svg

<svg width="50" height="50" viewBox="0 0 50 50" fill="none" xmlns="http://www.w3.org/2000/svg">
<path d="M24.9701 0C28.4349 0 31.6806 0.657109 34.7073 1.97133C37.734 3.28554 40.3823 5.0677 42.6523 7.3178C44.9223 9.5679 46.7145 12.2063 48.0287 15.233C49.3429 18.2597 50 21.5054 50 24.9701C50 28.4349 49.3429 31.6806 48.0287 34.7073C46.7145 37.734 44.9223 40.3823 42.6523 42.6523C40.3823 44.9223 37.734 46.7145 34.7073 48.0287C31.6806 49.3429 28.4349 50 24.9701 50C21.5054 50 18.2597 49.3429 15.233 48.0287C12.2063 46.7145 9.5679 44.9223 7.3178 42.6523C5.0677 40.3823 3.28554 37.734 1.97133 34.7073C0.657109 31.6806 0 28.4349 0 24.9701C0 21.5054 0.657109 18.2597 1.97133 15.233C3.28554 12.2063 5.0677 9.5679 7.3178 7.3178C9.5679 5.0677 12.2063 3.28554 15.233 1.97133C18.2597 0.657109 21.5054 0 24.9701 0ZM37.3955 19.5938C38.5504 18.7176 39.5659 17.6623 40.4421 16.4277C39.8845 16.6667 39.317 16.8658 38.7395 17.0251C38.1621 17.1844 37.5548 17.3039 36.9176 17.3835C37.5548 16.9853 38.1123 16.4974 38.5902 15.92C39.0681 15.3425 39.4066 14.7153 39.6057 14.0382C39.0084 14.3568 38.3911 14.6456 37.7539 14.9044C37.1167 15.1633 36.4596 15.3524 35.7826 15.4719C35.225 14.9144 34.5679 14.4564 33.8112 14.098C33.0546 13.7395 32.2182 13.5603 31.3023 13.5603C30.466 13.5603 29.6794 13.7196 28.9427 14.0382C28.2059 14.3568 27.5687 14.7949 27.0311 15.3524C26.4934 15.91 26.0653 16.5571 25.7467 17.2939C25.4281 18.0307 25.2688 18.8172 25.2688 19.6535C25.2688 19.8925 25.2788 20.1314 25.2987 20.3704C25.3186 20.6093 25.3485 20.8284 25.3883 21.0275C22.8793 20.908 20.5496 20.2907 18.399 19.1756C16.2485 18.0605 14.4166 16.5671 12.9032 14.6953C12.3457 15.6113 12.0669 16.6268 12.0669 17.7419C12.0669 18.7774 12.3158 19.7431 12.8136 20.6392C13.3114 21.5352 13.9586 22.262 14.7551 22.8196C13.7196 22.7399 12.8037 22.4811 12.0072 22.043V22.1027C12.0072 23.6161 12.4751 24.9204 13.411 26.0155C14.3469 27.1107 15.5117 27.7977 16.9056 28.0765C16.6268 28.1561 16.358 28.2159 16.0992 28.2557C15.8403 28.2955 15.5715 28.3154 15.2927 28.3154C15.0936 28.3154 14.9044 28.3055 14.7252 28.2855C14.546 28.2656 14.3568 28.2358 14.1577 28.1959C14.556 29.3907 15.2628 30.3863 16.2784 31.1828C17.2939 31.9793 18.4787 32.3775 19.8327 32.3775C18.7973 33.2139 17.6324 33.861 16.3381 34.319C15.0438 34.777 13.6997 35.006 12.3059 35.006C12.0271 35.006 11.7682 34.996 11.5293 34.9761C11.2903 34.9562 11.0514 34.9263 10.8124 34.8865C12.1665 35.7626 13.63 36.4397 15.2031 36.9176C16.7762 37.3955 18.419 37.6344 20.1314 37.6344C22.9192 37.6344 25.3883 37.1067 27.5388 36.0514C29.6894 34.996 31.4914 33.642 32.945 31.9892C34.3986 30.3365 35.5038 28.4847 36.2605 26.4337C37.0171 24.3827 37.3955 22.3616 37.3955 20.3704V19.5938Z" fill="white"/>
</svg>

<svg width="50" height="50" fill="none" xmlns="http://www.w3.org/2000/svg"><path d="M24.97 0c3.465 0 6.71.657 9.737 1.971 3.027 1.315 5.675 3.097 7.945 5.347 2.27 2.25 4.063 4.888 5.377 7.915S50 21.505 50 24.97s-.657 6.71-1.971 9.737c-1.315 3.027-3.107 5.675-5.377 7.945-2.27 2.27-4.918 4.063-7.945 5.377C31.681 49.343 28.435 50 24.97 50s-6.71-.657-9.737-1.971c-3.027-1.315-5.665-3.107-7.915-5.377-2.25-2.27-4.032-4.918-5.347-7.945C.657 31.681 0 28.435 0 24.97s.657-6.71 1.971-9.737c1.315-3.027 3.097-5.665 5.347-7.915 2.25-2.25 4.888-4.032 7.915-5.347C18.26.657 21.505 0 24.97 0Zm12.425 19.594a14.405 14.405 0 0 0 3.047-3.166 12.819 12.819 0 0 1-3.525.956 6.912 6.912 0 0 0 1.673-1.464 5.262 5.262 0 0 0 1.016-1.882c-.598.319-1.215.608-1.852.866a9.703 9.703 0 0 1-1.971.568 6.994 6.994 0 0 0-1.972-1.374c-.756-.359-1.593-.538-2.509-.538a5.88 5.88 0 0 0-2.36.478 5.85 5.85 0 0 0-1.91 1.314 6.467 6.467 0 0 0-1.285 1.942 5.88 5.88 0 0 0-.478 2.36c0 .238.01.477.03.716.02.24.05.458.09.657-2.51-.119-4.84-.736-6.99-1.851a17.13 17.13 0 0 1-5.496-4.48c-.557.915-.836 1.93-.836 3.046a5.87 5.87 0 0 0 .747 2.897 6.423 6.423 0 0 0 1.941 2.18c-1.035-.08-1.951-.338-2.748-.776v.06c0 1.513.468 2.817 1.404 3.912.936 1.096 2.1 1.783 3.495 2.061-.28.08-.548.14-.807.18a5.303 5.303 0 0 1-1.374.03 6.609 6.609 0 0 1-.567-.09 6.232 6.232 0 0 0 2.12 2.987c1.016.796 2.2 1.194 3.555 1.194a11.754 11.754 0 0 1-3.495 1.942 11.999 11.999 0 0 1-4.032.687 8.815 8.815 0 0 1-1.493-.12 17.292 17.292 0 0 0 4.39 2.032 16.86 16.86 0 0 0 4.928.716c2.788 0 5.257-.527 7.408-1.583 2.15-1.055 3.952-2.409 5.406-4.062a17.535 17.535 0 0 0 3.316-5.555c.756-2.051 1.134-4.072 1.134-6.064v-.776Z" fill="#fff"/></svg>
